X: 71
T:Miss Bannister's Hornpipe. BF13.070
M:4/4
Q:160
S:J.Lishman()MS,c1825,Lakes,Browne Coll.
R:Hornpipe
O:England
A:Lakes
Z:vmp.Chris Partington
K:Bb
dc|B2b2B2(gf)|edcB AGFE|DBFB GBFB|cdec BAGF|!
B2b2B2(gf)|edcB AGFE|DBFB GecA|B2B2B2:|!
|:dc|Bdce dfeg|Bff2Bff2|babg =ebge|f2f2f2(ga)|!
babf dBdf|gfgB AGFE|DBFB GecA|B2B2B2:|]
